X: 100390
P: THE CHORUS LANCERS QUADRILLES -- Part 4.
U: P=!crescendo(!
U: p=!crescendo)!
M: 2/4
L: 1/16
K: A
[|\
vc4 A4 | c4 A4 | c2BA B2cd | c4 A4 |\
vC2"^8va . . . . . . ."E2E2E2 | E2A2A2c2 |"^.  .  .  .  .  .  ."(c3B) B4 | !ff!B2"_>"B2 "_>"G2"_>"E2 |\
E2G2G2B2 | B2d2d2G2 | (B3A) A4 | !ff!A2"_>"E2"_>"C2"_>"A,2 |
c2G2G2G2 | G2A2G2F2 | (E3F) G4 | !ff!G2"_>"G2"_>"E2"_>"C2 |\
e2B2B2^B2 | c2B2A2F2 |!ff!PE2EE (.E2.E2) | e2ee e2pz2 "^D.C."|]


